X: 179
Q: "(A Game Song. For Directions: See page 9)
M: 6/8
L: 1/8
K: A
"^I"(A/B/) | c2 E E2 E/- E/ | F2 E/- E/ A2 c | B2 d F- F G |
d2 d d2 d | d2 c c2 c | c2 B B c ^d | e3 "^D.C."E2 |]


